brandFactory_export/2.Regular/Futbol balon_2Regular.svg

<?xml version="1.0" encoding="UTF-8"?>
<svg width="24px" height="24px" viewBox="0 0 24 24" version="1.1" xmlns="http://www.w3.org/2000/svg" xmlns:xlink="http://www.w3.org/1999/xlink">
    <title>2.Regular/Futbol balon_2Regular</title>
    <g id="Symbols" stroke="none" stroke-width="1" fill="none" fill-rule="evenodd">
        <g id="2.Regular/Futbol-balon_2Regular" fill="#5CB615" fill-rule="nonzero">
            <path d="M15.307563,21.794958 L16.1613445,19.1731092 C16.2352941,18.9310924 16.3966387,18.7092437 16.6151261,18.5512605 C16.8336134,18.3932773 17.112605,18.3193277 17.3579832,18.312605 L20.5176471,18.312605 C19.1394958,20.3831933 17.1193277,21.3512605 15.307563,21.794958 Z M12.4571429,22.1445378 L12.2352941,22.1445378 C11.9462185,22.1445378 11.6470588,22.1411765 11.3882353,22.1344538 C10.9478992,22.1243697 10.4168067,22.0840336 9.83865546,22.0033613 C9.81848739,21.9193277 9.81512605,21.8352941 9.78823529,21.7579832 L8.78991597,18.6823529 C8.68907563,18.3630252 8.5210084,18.0672269 8.3092437,17.805042 L9.00840336,16.7495798 C9.37142857,16.9310924 9.76470588,17.0453782 10.1882353,17.0453782 L13.4689076,17.0453782 C13.8722689,17.0453782 14.2554622,16.9512605 14.605042,16.789916 L15.2470588,17.8386555 C15.0285714,18.107563 14.8537815,18.4067227 14.7563025,18.7260504 L13.7546218,21.805042 C13.7277311,21.892437 13.7176471,21.9865546 13.697479,22.0773109 C13.2403361,22.1243697 12.8201681,22.1445378 12.4571429,22.1445378 L12.4571429,22.1445378 Z M3.24033613,18.2621849 L6.21176471,18.2621849 C6.45714286,18.2621849 6.71260504,18.3462185 6.92773109,18.5042017 C7.14621849,18.6621849 7.30756303,18.8840336 7.38487395,19.1361345 L8.20504202,21.6638655 C6.45714286,21.1697479 4.56806723,20.1915966 3.24033613,18.2621849 Z M11.3344538,1.48235294 C11.5428571,1.4789916 11.7815126,1.47563025 12.0201681,1.47563025 L12.3630252,1.4789916 C13.0218487,1.48907563 13.8823529,1.55630252 14.8134454,1.7512605 L12.5781513,3.37478992 C12.1747899,3.68067227 11.5294118,3.68739496 11.1058824,3.36806723 L8.8907563,1.76134454 C9.81848739,1.56638655 10.6756303,1.49579832 11.3344538,1.48235294 L11.3344538,1.48235294 Z M9.02521008,14.7058824 L8.85714286,14.1983193 L8.02016807,11.6134454 C7.8487395,11.092437 8.03361345,10.5243697 8.48067227,10.2016807 L11.112605,8.28907563 C11.5159664,7.98655462 12.1613445,7.97647059 12.5882353,8.29579832 L15.2134454,10.205042 C15.6605042,10.5277311 15.8453782,11.092437 15.6739496,11.6168067 L14.6722689,14.6957983 C14.5008403,15.2201681 14.0168067,15.5731092 13.4689076,15.5731092 L10.2016807,15.5731092 C9.66386555,15.5697479 9.19327731,15.2235294 9.02521008,14.7058824 L9.02521008,14.7058824 Z M22.1647059,11.4655462 L20.107563,9.9697479 C19.902521,9.82521008 19.7411765,9.60336134 19.6571429,9.34453782 C19.5731092,9.08907563 19.5731092,8.81680672 19.6605042,8.56470588 L20.6285714,5.57647059 C21.5159664,7.00504202 22.107563,8.91428571 22.1647059,11.4655462 Z M16.5008403,2.2487395 C17.5966387,2.66890756 18.6890756,3.31764706 19.6268908,4.29915966 C19.4689076,4.52436975 19.3378151,4.76638655 19.2537815,5.03193277 L18.2554622,8.10420168 C18.1445378,8.4302521 18.107563,8.77647059 18.1310924,9.12268908 L16.7462185,9.70420168 C16.5680672,9.44201681 16.3495798,9.2 16.0773109,9.00840336 L13.4621849,7.1092437 C13.2,6.91428571 12.9008403,6.77983193 12.5815126,6.69915966 L12.5815126,4.98151261 C12.9008403,4.89411765 13.2,4.75630252 13.4521008,4.56470588 L16.0705882,2.66218487 C16.2386555,2.54453782 16.3697479,2.39327731 16.5008403,2.2487395 L16.5008403,2.2487395 Z M7.20336134,2.25546218 C7.33109244,2.39663866 7.45882353,2.54453782 7.61680672,2.65882353 L10.2285714,4.55462185 C10.4907563,4.75294118 10.789916,4.8907563 11.1092437,4.97815126 L11.1092437,6.69243697 C10.7932773,6.77647059 10.4941176,6.90756303 10.2386555,7.09915966 L7.62016807,9.00168067 C7.34117647,9.2 7.11596639,9.4487395 6.93445378,9.7210084 L5.50252101,9.05882353 C5.52941176,8.70588235 5.49243697,8.35294118 5.38151261,8.02689076 L4.38319328,4.94789916 C4.3092437,4.71596639 4.19495798,4.50084034 4.06386555,4.29915966 C5.00168067,3.32436975 6.10084034,2.67563025 7.20336134,2.25546218 Z M3.04537815,5.61680672 L3.97983193,8.50084034 C4.06386555,8.7394958 4.0605042,9.01176471 3.97647059,9.27058824 C3.89243697,9.52605042 3.73445378,9.74789916 3.51932773,9.90252101 L1.53277311,11.3478992 C1.59327731,8.87058824 2.17478992,7.00840336 3.04537815,5.61680672 L3.04537815,5.61680672 Z M2.92773109,16.7831933 C2.7697479,16.7831933 2.61512605,16.8 2.46386555,16.8268908 C2.01008403,15.794958 1.69411765,14.5714286 1.57647059,13.1058824 C1.63697479,13.0689076 1.70756303,13.0420168 1.76806723,12.9983193 L4.37983193,11.0991597 C4.62521008,10.9243697 4.83697479,10.7058824 5.01176471,10.4605042 L6.48739496,11.1428571 C6.47731092,11.4521008 6.51764706,11.7647059 6.61848739,12.0705882 L7.78823529,15.6739496 L7.8487395,15.6739496 C7.86554622,15.7008403 7.88907563,15.7210084 7.90588235,15.7478992 L7.1092437,16.9512605 C6.81344538,16.8436975 6.50084034,16.7831933 6.18487395,16.7865546 L2.92773109,16.7865546 L2.92773109,16.7831933 Z M20.6117647,16.8336134 L17.3344538,16.8336134 C17.0386555,16.8336134 16.7394958,16.8907563 16.4571429,16.9882353 L15.7411765,15.8252101 C15.8789916,15.6201681 15.9966387,15.394958 16.0739496,15.1529412 L17.0756303,12.0739496 C17.1798319,11.7546218 17.2168067,11.4319328 17.2067227,11.112605 L18.6117647,10.5210084 C18.789916,10.7764706 19.0016807,10.9983193 19.2470588,11.1731092 L21.8655462,13.0789916 C21.9428571,13.1361345 22.0336134,13.1731092 22.1142857,13.2201681 C21.9966387,14.6789916 21.6840336,15.8957983 21.2436975,16.9176471 C21.0386555,16.8672269 20.8268908,16.8336134 20.6117647,16.8336134 L20.6117647,16.8336134 Z M12.3865546,0.00336134454 C12.2655462,0 12.1445378,0 12.0201681,0 C11.7680672,0 11.5193277,0.00336134454 11.3042017,0.00672268908 C9.0487395,0.0504201681 0.0302521008,0.894117647 0.0302521008,11.7815126 C0.0302521008,22.6453782 9.03529412,23.5596639 11.3478992,23.6134454 C11.6201681,23.6201681 11.9294118,23.6235294 12.2319328,23.6235294 L12.4672269,23.6235294 C14.8403361,23.6033613 23.6537825,22.789916 23.6537825,11.8521008 C23.6571429,0.894117647 14.7596639,0.0369747899 12.3865546,0.00336134454 Z" id="Futbol-balon_2Regular"></path>
        </g>
    </g>
</svg>

<svg width="24" height="24" viewBox="0 0 24 24" xmlns="http://www.w3.org/2000/svg"><path d="M15.308 21.795l.853-2.622c.074-.242.236-.464.454-.622.219-.158.498-.232.743-.238h3.16c-1.379 2.07-3.399 3.038-5.21 3.482zm-2.85.35h-.223c-.289 0-.588-.004-.847-.01-.44-.01-.971-.051-1.55-.132-.02-.084-.023-.168-.05-.245l-.998-3.076c-.1-.319-.269-.615-.48-.877l.698-1.055a2.62 2.62 0 001.18.295h3.28c.404 0 .787-.094 1.137-.255l.642 1.049a2.655 2.655 0 00-.49.887l-1.002 3.079c-.027.087-.037.182-.058.272-.457.047-.877.068-1.24.068zM3.24 18.262h2.972c.245 0 .5.084.716.242.218.158.38.38.457.632l.82 2.528c-1.748-.494-3.637-1.472-4.965-3.402zm8.094-16.78c.209-.003.448-.006.686-.006l.343.003c.659.01 1.52.077 2.45.272l-2.235 1.624c-.403.306-1.049.312-1.472-.007L8.89 1.761a13.383 13.383 0 012.443-.279zM9.025 14.706l-.168-.508-.837-2.585a1.253 1.253 0 01.46-1.411l2.633-1.913c.403-.302 1.048-.313 1.475.007l2.625 1.909c.448.323.632.887.46 1.412l-1 3.079a1.266 1.266 0 01-1.204.877h-3.267a1.243 1.243 0 01-1.177-.867zm13.14-3.24L20.108 9.97a1.23 1.23 0 01-.45-.625 1.215 1.215 0 01.003-.78l.968-2.989c.887 1.429 1.479 3.338 1.536 5.89zM16.5 2.249c1.096.42 2.188 1.069 3.126 2.05-.158.225-.29.467-.373.733l-.999 3.072c-.11.326-.147.672-.124 1.019l-1.385.581a2.68 2.68 0 00-.669-.696L13.462 7.11a2.487 2.487 0 00-.88-.41V4.982c.319-.088.618-.226.87-.417l2.619-1.903c.168-.117.299-.269.43-.413zm-9.298.006c.128.142.256.29.414.404l2.612 1.896c.262.198.56.336.88.423v1.714a2.524 2.524 0 00-.87.407L7.62 9.002a2.73 2.73 0 00-.686.719l-1.431-.662a2.596 2.596 0 00-.121-1.032l-.999-3.08a2.709 2.709 0 00-.32-.648c.939-.975 2.038-1.623 3.14-2.044zM3.045 5.617L3.98 8.5c.084.238.08.51-.004.77a1.258 1.258 0 01-.457.632l-1.986 1.445c.06-2.477.642-4.34 1.512-5.731zm-.117 11.166c-.158 0-.313.017-.464.044-.454-1.032-.77-2.256-.888-3.721.061-.037.132-.064.192-.108L4.38 11.1c.245-.175.457-.393.632-.638l1.475.682c-.01.31.03.622.131.928l1.17 3.603h.06c.018.027.041.047.058.074l-.797 1.203a2.628 2.628 0 00-.924-.164H2.928v-.004zm17.684.05h-3.278c-.295 0-.595.058-.877.155l-.716-1.163c.138-.205.256-.43.333-.672l1.002-3.08c.104-.318.14-.641.13-.96l1.406-.592c.178.255.39.477.635.652l2.619 1.906c.077.057.168.094.248.141-.117 1.459-.43 2.676-.87 3.698a2.65 2.65 0 00-.632-.084zM12.387.004C12.266 0 12.145 0 12.02 0c-.252 0-.5.003-.716.007C9.05.05.03.894.03 11.782c0 10.863 9.005 11.778 11.318 11.831.272.007.581.01.884.01h.235c2.373-.02 11.187-.833 11.187-11.77C23.657.893 14.76.036 12.387.002z" fill="#5CB615" fill-rule="nonzero"/></svg>
